img/image/design/heading-love.svg

<svg xmlns="http://www.w3.org/2000/svg" fill="none" viewBox="21.77 17.7 46.86 46.86">
<g filter="url(#filter0_d_16817_294)">
<path d="M68.6332 41.1296C68.6332 54.07 58.143 64.5602 45.2026 64.5602C32.2622 64.5602 21.772 54.07 21.772 41.1296C21.772 28.1892 32.2622 17.699 45.2026 17.699C58.143 17.699 68.6332 28.1892 68.6332 41.1296Z" fill="#FF6457"/>
<path d="M68.6332 41.1296C68.6332 54.07 58.143 64.5602 45.2026 64.5602C32.2622 64.5602 21.772 54.07 21.772 41.1296C21.772 28.1892 32.2622 17.699 45.2026 17.699C58.143 17.699 68.6332 28.1892 68.6332 41.1296Z" fill="#FF6457"/>
<path fill-rule="evenodd" clip-rule="evenodd" d="M47.8191 33.3199C48.3119 33.3199 48.804 33.3894 49.2718 33.5464C52.1546 34.4836 53.1933 37.6468 52.3256 40.4116C51.8336 41.8245 51.0291 43.1139 49.9755 44.1675C48.4674 45.628 46.8124 46.9245 45.0309 48.0414L44.8356 48.1593L44.6326 48.0336C42.8448 46.9245 41.1804 45.628 39.6582 44.1597C38.6117 43.1061 37.8064 41.8245 37.3066 40.4116C36.424 37.6468 37.4628 34.4836 40.3768 33.53C40.6033 33.4519 40.8368 33.3972 41.0711 33.3668H41.1648C41.3843 33.3348 41.6022 33.3199 41.8209 33.3199H41.9068C42.3988 33.3348 42.8753 33.4207 43.3368 33.5777H43.3829C43.4142 33.5925 43.4376 33.6089 43.4532 33.6237C43.6258 33.6792 43.789 33.7417 43.9453 33.8276L44.242 33.9604C44.3138 33.9986 44.3943 34.0571 44.4638 34.1076C44.5079 34.1396 44.5476 34.1684 44.5779 34.1869C44.5906 34.1944 44.6036 34.2019 44.6166 34.2096C44.6836 34.2487 44.7534 34.2894 44.8122 34.3345C45.6799 33.6714 46.7335 33.3121 47.8191 33.3199ZM49.8967 38.9432C50.2169 38.9346 50.4903 38.6776 50.5137 38.3488V38.2559C50.5371 37.1617 49.874 36.1706 48.8657 35.7879C48.5455 35.6777 48.1941 35.8503 48.0769 36.1784C47.9676 36.5064 48.1394 36.8657 48.4674 36.982C48.9681 37.1695 49.3031 37.6623 49.3031 38.2082V38.2324C49.2883 38.4113 49.3422 38.5839 49.4515 38.7167C49.5609 38.8495 49.7249 38.9268 49.8967 38.9432Z" fill="#FF6457"/>
<path fill-rule="evenodd" clip-rule="evenodd" d="M47.8191 33.3199C48.3119 33.3199 48.804 33.3894 49.2718 33.5464C52.1546 34.4836 53.1933 37.6468 52.3256 40.4116C51.8336 41.8245 51.0291 43.1139 49.9755 44.1675C48.4674 45.628 46.8124 46.9245 45.0309 48.0414L44.8356 48.1593L44.6326 48.0336C42.8448 46.9245 41.1804 45.628 39.6582 44.1597C38.6117 43.1061 37.8064 41.8245 37.3066 40.4116C36.424 37.6468 37.4628 34.4836 40.3768 33.53C40.6033 33.4519 40.8368 33.3972 41.0711 33.3668H41.1648C41.3843 33.3348 41.6022 33.3199 41.8209 33.3199H41.9068C42.3988 33.3348 42.8753 33.4207 43.3368 33.5777H43.3829C43.4142 33.5925 43.4376 33.6089 43.4532 33.6237C43.6258 33.6792 43.789 33.7417 43.9453 33.8276L44.242 33.9604C44.3138 33.9986 44.3943 34.0571 44.4638 34.1076C44.5079 34.1396 44.5476 34.1684 44.5779 34.1869C44.5906 34.1944 44.6036 34.2019 44.6166 34.2096C44.6836 34.2487 44.7534 34.2894 44.8122 34.3345C45.6799 33.6714 46.7335 33.3121 47.8191 33.3199ZM49.8967 38.9432C50.2169 38.9346 50.4903 38.6776 50.5137 38.3488V38.2559C50.5371 37.1617 49.874 36.1706 48.8657 35.7879C48.5455 35.6777 48.1941 35.8503 48.0769 36.1784C47.9676 36.5064 48.1394 36.8657 48.4674 36.982C48.9681 37.1695 49.3031 37.6623 49.3031 38.2082V38.2324C49.2883 38.4113 49.3422 38.5839 49.4515 38.7167C49.5609 38.8495 49.7249 38.9268 49.8967 38.9432Z" fill="#FF6457"/>
</g>
<g filter="url(#filter1_d_16817_294)">
<path d="M59.8466 41.1295C59.8466 49.2172 53.2902 55.7736 45.2025 55.7736C37.1148 55.7736 30.5584 49.2172 30.5584 41.1295C30.5584 33.0418 37.1148 26.4854 45.2025 26.4854C53.2902 26.4854 59.8466 33.0418 59.8466 41.1295Z" fill="#FF6457"/>
<path d="M59.8466 41.1295C59.8466 49.2172 53.2902 55.7736 45.2025 55.7736C37.1148 55.7736 30.5584 49.2172 30.5584 41.1295C30.5584 33.0418 37.1148 26.4854 45.2025 26.4854C53.2902 26.4854 59.8466 33.0418 59.8466 41.1295Z" fill="#FF917B"/>
<path fill-rule="evenodd" clip-rule="evenodd" d="M46.8378 36.2484C47.1458 36.2484 47.4534 36.2919 47.7458 36.39C49.5475 36.9758 50.1967 38.9527 49.6544 40.6807C49.3468 41.5638 48.8441 42.3697 48.1856 43.0282C47.243 43.941 46.2086 44.7513 45.0952 45.4494L44.9731 45.5231L44.8462 45.4445C43.7289 44.7513 42.6887 43.941 41.7373 43.0233C41.0832 42.3648 40.5799 41.5638 40.2675 40.6807C39.7159 38.9527 40.3651 36.9758 42.1864 36.3798C42.3279 36.3309 42.4739 36.2968 42.6203 36.2777H42.6789C42.8161 36.2577 42.9522 36.2484 43.0889 36.2484H43.1426C43.4501 36.2577 43.7479 36.3114 44.0364 36.4095H44.0652C44.0847 36.4188 44.0994 36.4291 44.1091 36.4383C44.217 36.473 44.319 36.512 44.4167 36.5657L44.6022 36.6487C44.647 36.6726 44.6973 36.7092 44.7408 36.7407C44.7683 36.7607 44.7931 36.7787 44.8121 36.7903C44.82 36.795 44.8281 36.7997 44.8363 36.8045C44.8781 36.8289 44.9217 36.8544 44.9585 36.8825C45.5008 36.4681 46.1593 36.2436 46.8378 36.2484ZM48.1363 39.763C48.3364 39.7576 48.5073 39.597 48.5219 39.3915V39.3334C48.5366 38.6495 48.1222 38.0301 47.492 37.7909C47.2918 37.7221 47.0722 37.83 46.9989 38.035C46.9306 38.24 47.038 38.4645 47.243 38.5373C47.5559 38.6544 47.7653 38.9624 47.7653 39.3036V39.3188C47.7561 39.4306 47.7897 39.5384 47.8581 39.6214C47.9264 39.7044 48.0289 39.7527 48.1363 39.763Z" fill="#FF6457"/>
<path fill-rule="evenodd" clip-rule="evenodd" d="M46.8378 36.2484C47.1458 36.2484 47.4534 36.2919 47.7458 36.39C49.5475 36.9758 50.1967 38.9527 49.6544 40.6807C49.3468 41.5638 48.8441 42.3697 48.1856 43.0282C47.243 43.941 46.2086 44.7513 45.0952 45.4494L44.9731 45.5231L44.8462 45.4445C43.7289 44.7513 42.6887 43.941 41.7373 43.0233C41.0832 42.3648 40.5799 41.5638 40.2675 40.6807C39.7159 38.9527 40.3651 36.9758 42.1864 36.3798C42.3279 36.3309 42.4739 36.2968 42.6203 36.2777H42.6789C42.8161 36.2577 42.9522 36.2484 43.0889 36.2484H43.1426C43.4501 36.2577 43.7479 36.3114 44.0364 36.4095H44.0652C44.0847 36.4188 44.0994 36.4291 44.1091 36.4383C44.217 36.473 44.319 36.512 44.4167 36.5657L44.6022 36.6487C44.647 36.6726 44.6973 36.7092 44.7408 36.7407C44.7683 36.7607 44.7931 36.7787 44.8121 36.7903C44.82 36.795 44.8281 36.7997 44.8363 36.8045C44.8781 36.8289 44.9217 36.8544 44.9585 36.8825C45.5008 36.4681 46.1593 36.2436 46.8378 36.2484ZM48.1363 39.763C48.3364 39.7576 48.5073 39.597 48.5219 39.3915V39.3334C48.5366 38.6495 48.1222 38.0301 47.492 37.7909C47.2918 37.7221 47.0722 37.83 46.9989 38.035C46.9306 38.24 47.038 38.4645 47.243 38.5373C47.5559 38.6544 47.7653 38.9624 47.7653 39.3036V39.3188C47.7561 39.4306 47.7897 39.5384 47.8581 39.6214C47.9264 39.7044 48.0289 39.7527 48.1363 39.763Z" fill="#FF917B"/>
</g>
<path d="M47.618 36.0588H51.6333L52.6504 41.7606L47.618 40.8324V36.0588Z" fill="white"/>
<path fill-rule="evenodd" clip-rule="evenodd" d="M48.8854 34.2958C49.409 34.2958 49.9318 34.369 50.4289 34.5342C53.4917 35.5207 54.5954 38.8503 53.6735 41.7606C53.1507 43.2479 52.296 44.6052 51.1765 45.7142C49.5741 47.2516 47.8157 48.6163 45.9229 49.7919L45.7155 49.9161L45.4997 49.7837C43.6002 48.6163 41.8319 47.2516 40.2145 45.706C39.1026 44.5969 38.247 43.2479 37.7159 41.7606C36.7782 38.8503 37.8819 35.5207 40.978 34.5169C41.2186 34.4347 41.4667 34.3772 41.7157 34.3451H41.8153C42.0485 34.3114 42.28 34.2958 42.5123 34.2958H42.6036C43.1264 34.3114 43.6326 34.4018 44.123 34.5671H44.172C44.2052 34.5827 44.2301 34.6 44.2467 34.6156C44.4301 34.674 44.6035 34.7397 44.7695 34.8302L45.0848 34.9699C45.161 35.0102 45.2465 35.0717 45.3204 35.1249C45.3673 35.1586 45.4094 35.1889 45.4416 35.2083C45.4552 35.2163 45.4689 35.2242 45.4828 35.2322C45.5539 35.2734 45.6281 35.3163 45.6906 35.3637C46.6125 34.6657 47.7319 34.2876 48.8854 34.2958ZM51.0928 40.2149C51.433 40.2059 51.7235 39.9354 51.7484 39.5893V39.4915C51.7733 38.3397 51.0687 37.2964 49.9974 36.8936C49.6572 36.7777 49.2838 36.9593 49.1593 37.3046C49.0431 37.6499 49.2257 38.0281 49.5742 38.1506C50.1061 38.3479 50.4621 38.8667 50.4621 39.4413V39.4668C50.4464 39.6551 50.5036 39.8368 50.6198 39.9765C50.736 40.1163 50.9102 40.1977 51.0928 40.2149Z" fill="white"/>
<defs>
<filter id="filter0_d_16817_294" x="0.293907" y="0.126012" width="89.8174" height="89.8175" filterUnits="userSpaceOnUse" color-interpolation-filters="sRGB">
<feFlood flood-opacity="0" result="BackgroundImageFix"/>
<feColorMatrix in="SourceAlpha" type="matrix" values="0 0 0 0 0 0 0 0 0 0 0 0 0 0 0 0 0 0 127 0" result="hardAlpha"/>
<feOffset dy="3.9051"/>
<feGaussianBlur stdDeviation="10.739"/>
<feColorMatrix type="matrix" values="0 0 0 0 0 0 0 0 0 0 0 0 0 0 0 0 0 0 0.05 0"/>
<feBlend mode="normal" in2="BackgroundImageFix" result="effect1_dropShadow_16817_294"/>
<feBlend mode="normal" in="SourceGraphic" in2="effect1_dropShadow_16817_294" result="shape"/>
</filter>
<filter id="filter1_d_16817_294" x="9.08029" y="8.91239" width="72.2444" height="72.2445" filterUnits="userSpaceOnUse" color-interpolation-filters="sRGB">
<feFlood flood-opacity="0" result="BackgroundImageFix"/>
<feColorMatrix in="SourceAlpha" type="matrix" values="0 0 0 0 0 0 0 0 0 0 0 0 0 0 0 0 0 0 127 0" result="hardAlpha"/>
<feOffset dy="3.9051"/>
<feGaussianBlur stdDeviation="10.739"/>
<feColorMatrix type="matrix" values="0 0 0 0 0 0 0 0 0 0 0 0 0 0 0 0 0 0 0.05 0"/>
<feBlend mode="normal" in2="BackgroundImageFix" result="effect1_dropShadow_16817_294"/>
<feBlend mode="normal" in="SourceGraphic" in2="effect1_dropShadow_16817_294" result="shape"/>
</filter>
</defs>
</svg>

<svg xmlns="http://www.w3.org/2000/svg" fill="none" viewBox="21.77 17.7 46.86 46.86"><g filter="url(#a)" fill="#FF6457"><path d="M68.633 41.13c0 12.94-10.49 23.43-23.43 23.43S21.772 54.07 21.772 41.13s10.49-23.431 23.43-23.431c12.941 0 23.431 10.49 23.431 23.43Z"/><path d="M68.633 41.13c0 12.94-10.49 23.43-23.43 23.43S21.772 54.07 21.772 41.13s10.49-23.431 23.43-23.431c12.941 0 23.431 10.49 23.431 23.43Z"/><path fill-rule="evenodd" clip-rule="evenodd" d="M47.82 33.32c.492 0 .984.07 1.452.226 2.883.938 3.921 4.1 3.054 6.866a9.94 9.94 0 0 1-2.35 3.755 30.036 30.036 0 0 1-4.945 3.874l-.195.118-.203-.125a29.754 29.754 0 0 1-4.975-3.874 10.1 10.1 0 0 1-2.351-3.748c-.883-2.765.156-5.928 3.07-6.882.226-.078.46-.133.694-.163h.094c.22-.032.437-.047.656-.047h.086c.492.015.968.1 1.43.258h.046a.272.272 0 0 1 .07.046c.173.055.336.118.492.204l.297.132c.072.039.152.097.222.148.044.032.084.06.114.079l.039.023c.067.039.136.08.195.124a4.891 4.891 0 0 1 3.007-1.014Zm2.077 5.623a.642.642 0 0 0 .617-.594v-.093a2.578 2.578 0 0 0-1.648-2.468.625.625 0 0 0-.79.39.639.639 0 0 0 .391.804c.501.188.836.68.836 1.226v.024a.672.672 0 0 0 .149.485c.109.133.273.21.445.226Z"/><path fill-rule="evenodd" clip-rule="evenodd" d="M47.82 33.32c.492 0 .984.07 1.452.226 2.883.938 3.921 4.1 3.054 6.866a9.94 9.94 0 0 1-2.35 3.755 30.036 30.036 0 0 1-4.945 3.874l-.195.118-.203-.125a29.754 29.754 0 0 1-4.975-3.874 10.1 10.1 0 0 1-2.351-3.748c-.883-2.765.156-5.928 3.07-6.882.226-.078.46-.133.694-.163h.094c.22-.032.437-.047.656-.047h.086c.492.015.968.1 1.43.258h.046a.272.272 0 0 1 .07.046c.173.055.336.118.492.204l.297.132c.072.039.152.097.222.148.044.032.084.06.114.079l.039.023c.067.039.136.08.195.124a4.891 4.891 0 0 1 3.007-1.014Zm2.077 5.623a.642.642 0 0 0 .617-.594v-.093a2.578 2.578 0 0 0-1.648-2.468.625.625 0 0 0-.79.39.639.639 0 0 0 .391.804c.501.188.836.68.836 1.226v.024a.672.672 0 0 0 .149.485c.109.133.273.21.445.226Z"/></g><g filter="url(#b)"><path d="M59.847 41.13c0 8.087-6.557 14.644-14.645 14.644-8.087 0-14.644-6.557-14.644-14.645 0-8.087 6.557-14.644 14.645-14.644 8.087 0 14.644 6.557 14.644 14.645Z" fill="#FF6457"/><path d="M59.847 41.13c0 8.087-6.557 14.644-14.645 14.644-8.087 0-14.644-6.557-14.644-14.645 0-8.087 6.557-14.644 14.645-14.644 8.087 0 14.644 6.557 14.644 14.645Z" fill="#FF917B"/><path fill-rule="evenodd" clip-rule="evenodd" d="M46.838 36.248c.308 0 .615.044.908.142 1.801.586 2.45 2.563 1.908 4.29a6.214 6.214 0 0 1-1.468 2.348 18.778 18.778 0 0 1-3.09 2.421l-.123.074-.127-.079a18.6 18.6 0 0 1-3.109-2.42 6.313 6.313 0 0 1-1.47-2.343c-.551-1.728.098-3.705 1.92-4.301.14-.05.287-.083.433-.102h.059c.137-.02.273-.03.41-.03h.054c.307.01.605.063.893.162h.03c.019.009.033.02.043.028.108.035.21.074.308.128l.185.083c.045.024.095.06.139.092.027.02.052.038.071.05l.024.014c.042.024.086.05.123.078a3.058 3.058 0 0 1 1.879-.635Zm1.298 3.515a.401.401 0 0 0 .386-.371v-.059a1.61 1.61 0 0 0-1.03-1.542.391.391 0 0 0-.493.244.4.4 0 0 0 .244.502.817.817 0 0 1 .522.767v.015a.42.42 0 0 0 .093.302.41.41 0 0 0 .278.142Z" fill="#FF6457"/><path fill-rule="evenodd" clip-rule="evenodd" d="M46.838 36.248c.308 0 .615.044.908.142 1.801.586 2.45 2.563 1.908 4.29a6.214 6.214 0 0 1-1.468 2.348 18.778 18.778 0 0 1-3.09 2.421l-.123.074-.127-.079a18.6 18.6 0 0 1-3.109-2.42 6.313 6.313 0 0 1-1.47-2.343c-.551-1.728.098-3.705 1.92-4.301.14-.05.287-.083.433-.102h.059c.137-.02.273-.03.41-.03h.054c.307.01.605.063.893.162h.03c.019.009.033.02.043.028.108.035.21.074.308.128l.185.083c.045.024.095.06.139.092.027.02.052.038.071.05l.024.014c.042.024.086.05.123.078a3.058 3.058 0 0 1 1.879-.635Zm1.298 3.515a.401.401 0 0 0 .386-.371v-.059a1.61 1.61 0 0 0-1.03-1.542.391.391 0 0 0-.493.244.4.4 0 0 0 .244.502.817.817 0 0 1 .522.767v.015a.42.42 0 0 0 .093.302.41.41 0 0 0 .278.142Z" fill="#FF917B"/></g><path d="M47.618 36.059h4.015l1.017 5.702-5.032-.929V36.06Z" fill="#fff"/><path fill-rule="evenodd" clip-rule="evenodd" d="M48.885 34.296c.524 0 1.047.073 1.544.238 3.063.987 4.166 4.316 3.244 7.227a10.449 10.449 0 0 1-2.497 3.953 31.869 31.869 0 0 1-5.253 4.078l-.208.124-.215-.132a31.574 31.574 0 0 1-5.285-4.078 10.62 10.62 0 0 1-2.5-3.945c-.937-2.91.167-6.24 3.263-7.244.24-.082.489-.14.738-.172h.1c.232-.034.464-.05.696-.05h.092a5.216 5.216 0 0 1 1.519.272h.049a.29.29 0 0 1 .075.049c.183.058.356.124.523.214l.315.14c.076.04.161.102.235.155.047.034.09.064.122.083l.04.024c.072.041.146.084.209.132a5.229 5.229 0 0 1 3.194-1.068Zm2.208 5.919a.68.68 0 0 0 .655-.626v-.097a2.713 2.713 0 0 0-1.75-2.598.666.666 0 0 0-.839.41.67.67 0 0 0 .415.847c.532.197.888.716.888 1.29v.026a.702.702 0 0 0 .158.51c.116.14.29.22.473.238Z" fill="#fff"/><defs><filter id="a" x=".294" y=".126" width="89.817" height="89.817" filterUnits="userSpaceOnUse" color-interpolation-filters="sRGB"><feFlood flood-opacity="0" result="BackgroundImageFix"/><feColorMatrix in="SourceAlpha" values="0 0 0 0 0 0 0 0 0 0 0 0 0 0 0 0 0 0 127 0" result="hardAlpha"/><feOffset dy="3.905"/><feGaussianBlur stdDeviation="10.739"/><feColorMatrix values="0 0 0 0 0 0 0 0 0 0 0 0 0 0 0 0 0 0 0.05 0"/><feBlend in2="BackgroundImageFix" result="effect1_dropShadow_16817_294"/><feBlend in="SourceGraphic" in2="effect1_dropShadow_16817_294" result="shape"/></filter><filter id="b" x="9.08" y="8.912" width="72.244" height="72.245" filterUnits="userSpaceOnUse" color-interpolation-filters="sRGB"><feFlood flood-opacity="0" result="BackgroundImageFix"/><feColorMatrix in="SourceAlpha" values="0 0 0 0 0 0 0 0 0 0 0 0 0 0 0 0 0 0 127 0" result="hardAlpha"/><feOffset dy="3.905"/><feGaussianBlur stdDeviation="10.739"/><feColorMatrix values="0 0 0 0 0 0 0 0 0 0 0 0 0 0 0 0 0 0 0.05 0"/><feBlend in2="BackgroundImageFix" result="effect1_dropShadow_16817_294"/><feBlend in="SourceGraphic" in2="effect1_dropShadow_16817_294" result="shape"/></filter></defs></svg>
